src/assets/ai-icon-white.svg

<svg width="28" height="28" viewBox="0 0 28 28" fill="none" xmlns="http://www.w3.org/2000/svg">
<path fill-rule="evenodd" clip-rule="evenodd" d="M23.0977 16.096C23.0977 15.8709 23.0075 15.6551 22.8471 15.496C22.6867 15.3368 22.4691 15.2474 22.2422 15.2474H5.13281C4.90593 15.2474 4.68834 15.3368 4.5279 15.496C4.36747 15.6551 4.27734 15.8709 4.27734 16.096V25.4298C4.27712 25.7642 4.34335 26.0953 4.47224 26.4043C4.60114 26.7132 4.79017 26.9939 5.02853 27.2304C5.26688 27.4668 5.54989 27.6543 5.86136 27.7821C6.17284 27.91 6.50666 27.9757 6.84375 27.9754H20.5312C21.2122 27.9754 21.8658 27.7065 22.3448 27.2287C22.8265 26.7527 23.0977 26.1044 23.0977 25.4298V16.096ZM23.0977 3.36793C23.0977 2.6925 22.8273 2.04507 22.3457 1.56819C22.1076 1.33164 21.8247 1.144 21.5134 1.01602C21.202 0.888033 20.8683 0.822213 20.5312 0.822327H6.84375C6.1628 0.822327 5.51007 1.09046 5.0293 1.56819C4.79082 1.8044 4.60165 2.08495 4.47262 2.39378C4.34359 2.7026 4.27723 3.03364 4.27734 3.36793V11.0047C4.27734 11.6802 4.54767 12.3276 5.0293 12.8045C5.26745 13.041 5.55029 13.2287 5.86164 13.3567C6.17298 13.4846 6.50672 13.5505 6.84375 13.5504H20.5312C21.2122 13.5504 21.8649 13.2822 22.3457 12.8045C22.5842 12.5683 22.7734 12.2877 22.9024 11.9789C23.0314 11.6701 23.0978 11.339 23.0977 11.0047V3.36793ZM10.2656 4.21647C9.59644 4.23361 8.96048 4.50932 8.49329 4.98485C8.02609 5.46037 7.76463 6.09809 7.76463 6.76207C7.76463 7.42605 8.02609 8.06377 8.49329 8.53929C8.96048 9.01482 9.59644 9.29054 10.2656 9.30768C10.9348 9.29054 11.5708 9.01482 12.038 8.53929C12.5052 8.06377 12.7666 7.42605 12.7666 6.76207C12.7666 6.09809 12.5052 5.46037 12.038 4.98485C11.5708 4.50932 10.9348 4.23361 10.2656 4.21647ZM17.1094 4.21647C16.4402 4.23361 15.8042 4.50932 15.337 4.98485C14.8698 5.46037 14.6084 6.09809 14.6084 6.76207C14.6084 7.42605 14.8698 8.06377 15.337 8.53929C15.8042 9.01482 16.4402 9.29054 17.1094 9.30768C17.7786 9.29054 18.4145 9.01482 18.8817 8.53929C19.3489 8.06377 19.6104 7.42605 19.6104 6.76207C19.6104 6.09809 19.3489 5.46037 18.8817 4.98485C18.4145 4.50932 17.7786 4.23361 17.1094 4.21647ZM24.6623 15.2474H24.8086C25.4895 15.2474 26.1423 15.5156 26.623 15.9933C27.1047 16.4702 27.375 17.1176 27.375 17.793V22.8842C27.375 23.5597 27.1047 24.2071 26.623 24.684C26.3849 24.9205 26.1021 25.1082 25.7907 25.2362C25.4794 25.3641 25.1456 25.43 24.8086 25.4298V16.096C24.8086 15.7981 24.7573 15.513 24.6623 15.2474ZM2.71269 15.2474H2.56641C1.88545 15.2474 1.23273 15.5156 0.751957 15.9933C0.513476 16.2295 0.324305 16.51 0.195274 16.8189C0.0662434 17.1277 -0.000114262 17.4587 1.4769e-07 17.793V22.8842C1.4769e-07 23.5597 0.270328 24.2071 0.751957 24.684C0.990103 24.9205 1.27295 25.1082 1.58429 25.2362C1.89564 25.3641 2.22938 25.43 2.56641 25.4298V16.096C2.56641 15.7981 2.61773 15.513 2.71269 15.2474Z" fill="white"/>
</svg>

<svg width="28" height="28" fill="none" xmlns="http://www.w3.org/2000/svg"><path fill-rule="evenodd" clip-rule="evenodd" d="M23.098 16.096c0-.225-.09-.44-.25-.6a.859.859 0 00-.606-.249H5.132a.859.859 0 00-.604.249.845.845 0 00-.25.6v9.334a2.527 2.527 0 00.75 1.8 2.566 2.566 0 001.816.745H20.53a2.57 2.57 0 001.814-.746 2.53 2.53 0 00.753-1.8v-9.333zm0-12.728c0-.675-.27-1.323-.752-1.8A2.564 2.564 0 0020.53.822H6.844a2.574 2.574 0 00-2.371 1.572 2.51 2.51 0 00-.196.974v7.637c0 .675.27 1.323.752 1.8a2.566 2.566 0 001.815.745H20.53a2.574 2.574 0 002.371-1.571c.13-.309.196-.64.196-.974V3.368zm-12.832.848a2.577 2.577 0 00-1.773.769 2.536 2.536 0 000 3.554 2.577 2.577 0 001.773.769 2.577 2.577 0 001.772-.769 2.536 2.536 0 000-3.554 2.577 2.577 0 00-1.772-.769zm6.843 0a2.577 2.577 0 00-1.772.769 2.536 2.536 0 000 3.554 2.577 2.577 0 001.772.769 2.577 2.577 0 001.773-.769 2.536 2.536 0 000-3.554 2.577 2.577 0 00-1.773-.769zm7.553 11.031h.147c.68 0 1.333.269 1.814.746.482.477.752 1.125.752 1.8v5.091a2.53 2.53 0 01-.752 1.8 2.564 2.564 0 01-1.814.746v-9.334c0-.298-.052-.583-.147-.849zm-21.95 0h-.146a2.574 2.574 0 00-2.37 1.572 2.51 2.51 0 00-.196.974v5.091c0 .676.27 1.323.752 1.8a2.566 2.566 0 001.814.746v-9.334c0-.298.052-.583.147-.849z" fill="#fff"/></svg>
